src/svgs/solar-panel.svg

<svg xmlns="http://www.w3.org/2000/svg" viewBox="0 0 24 24" width="512" height="512" aria-labelledby="kosolar-panel-desc kosolar-panel-title"><title id="kosolar-panel-title">Solar Panel Icon</title><desc id="kosolar-panel-desc">A picture depicting a solar panel.</desc><path d="M0 0v24h24V0zm22 22H2V2h20zM8 8H4V4h4zm6 0h-4V4h4zm6 0h-4V4h4zM8 14H4v-4h4zm6 0h-4v-4h4zm6 0h-4v-4h4zM8 20H4v-4h4zm6 0h-4v-4h4zm6 0h-4v-4h4z"/></svg>

<svg xmlns="http://www.w3.org/2000/svg" viewBox="0 0 24 24"><path d="M0,0V24H24V0ZM22,22H2V2H22ZM8,8H4V4H8Zm6,0H10V4h4Zm6,0H16V4h4ZM8,14H4V10H8Zm6,0H10V10h4Zm6,0H16V10h4ZM8,20H4V16H8Zm6,0H10V16h4Zm6,0H16V16h4Z"/></svg>
